lib/flags/kr-korea-south.svg

<svg xmlns="http://www.w3.org/2000/svg" fill="none" aria-hidden="true" viewBox="0 0 42 30"><g id="Country=KR - Korea (South), Size=sm (36x24)" filter="url(#filter0_dd_91_26979)"><g clip-path="url(#clip0_91_26979)"><g id="flag"><mask id="mask0_91_26979" width="36" height="24" x="3" y="2" maskUnits="userSpaceOnUse" style="mask-type:alpha"><rect id="mask" width="36" height="24" x="3" y="2" fill="white"/></mask><g mask="url(#mask0_91_26979)"><g id="contents"><path id="background" fill="#F7FCFF" fill-rule="evenodd" d="M3 2V26H39V2H3Z" clip-rule="evenodd"/><mask id="mask1_91_26979" width="36" height="24" x="3" y="2" maskUnits="userSpaceOnUse" style="mask-type:alpha"><path id="background_2" fill="white" fill-rule="evenodd" d="M3 2V26H39V2H3Z" clip-rule="evenodd"/></mask><g mask="url(#mask1_91_26979)"><g id="mark"><g id="center"><path id="Oval 58" fill="#3D58DB" fill-rule="evenodd" d="M21 20.2194C24.6031 20.2194 27.5239 17.4621 27.5239 14.0609C27.5239 10.6596 24.6031 7.90234 21 7.90234C17.3969 7.90234 14.4761 10.6596 14.4761 14.0609C14.4761 17.4621 17.3969 20.2194 21 20.2194Z" clip-rule="evenodd"/><mask id="mask2_91_26979" width="14" height="14" x="14" y="7" maskUnits="userSpaceOnUse" style="mask-type:alpha"><path id="Oval 58_2" fill="white" fill-rule="evenodd" d="M21 20.2194C24.6031 20.2194 27.5239 17.4621 27.5239 14.0609C27.5239 10.6596 24.6031 7.90234 21 7.90234C17.3969 7.90234 14.4761 10.6596 14.4761 14.0609C14.4761 17.4621 17.3969 20.2194 21 20.2194Z" clip-rule="evenodd"/></mask><g mask="url(#mask2_91_26979)"><path id="Path 331" fill="#E31D1C" fill-rule="evenodd" d="M27.7522 14.5325C27.7522 14.5325 27.386 11.6286 24.674 11.4709C21.962 11.3133 21.2307 13.6005 21.0742 14.2065C20.9177 14.8124 20.5216 16.4289 17.6662 16.4289C14.8108 16.4289 14.5532 12.3185 14.5532 12.3185V7.47168H27.7522V14.5325Z" clip-rule="evenodd"/></g></g><path id="Combined Shape" fill="#272727" fill-rule="evenodd" d="M11.2117 4.05225L12.241 4.87977L7.47074 9.83168L6.44141 9.00415L11.2117 4.05225ZM12.9094 5.3914L13.9387 6.21893L9.33944 11.0991L8.3101 10.2716L12.9094 5.3914ZM15.6286 7.57459L14.5992 6.74706L9.98717 11.6643L11.0165 12.4918L15.6286 7.57459Z" clip-rule="evenodd"/><path id="Combined Shape_2" fill="#272727" fill-rule="evenodd" d="M31.534 3.70508L30.5044 4.52951L32.2903 6.39234L33.3198 5.56791L31.534 3.70508ZM34.7083 7.13172L33.6788 7.95615L35.4646 9.81898L36.4941 8.99455L34.7083 7.13172ZM27.1064 7.2127L28.1359 6.38827L29.9217 8.2511L28.8922 9.07553L27.1064 7.2127ZM31.3101 9.8149L30.2806 10.6393L32.0664 12.5022L33.096 11.6777L31.3101 9.8149ZM28.8698 5.83109L29.8993 5.00666L34.8703 10.3875L33.8407 11.212L28.8698 5.83109Z" clip-rule="evenodd"/><path id="Combined Shape_3" fill="#272727" fill-rule="evenodd" d="M32.3116 16.2432L31.2734 15.4155L29.4725 17.2856L30.5108 18.1133L32.3116 16.2432ZM29.2839 19.5342L28.2457 18.7065L26.4448 20.5766L27.483 21.4043L29.2839 19.5342ZM34.5521 18.0329L35.5904 18.8605L33.7895 20.7306L32.7513 19.903L34.5521 18.0329ZM32.7107 22.2278L31.6725 21.4002L29.8716 23.2703L30.9098 24.0979L32.7107 22.2278ZM29.9622 19.9781L31.0004 20.8058L29.1206 22.8027L28.0824 21.975L29.9622 19.9781ZM34.0845 17.4783L33.0463 16.6506L31.1665 18.6476L32.2047 19.4752L34.0845 17.4783Z" clip-rule="evenodd"/><path id="Combined Shape_4" fill="#272727" fill-rule="evenodd" d="M10.2073 16.8898L11.2369 16.0645L15.832 20.7449L14.8024 21.5702L10.2073 16.8898ZM11.2792 20.9835L12.3088 20.1581L14.2497 22.0537L13.2201 22.879L11.2792 20.9835ZM7.84805 18.6907L6.81844 19.516L11.4375 24.2594L12.4671 23.4341L7.84805 18.6907ZM8.58053 18.1521L9.61014 17.3268L11.2928 19.0806L10.2632 19.906L8.58053 18.1521Z" clip-rule="evenodd"/></g></g></g></g></g></g></g><defs><filter id="filter0_dd_91_26979" width="42" height="30" x="0" y="0" color-interpolation-filters="sRGB" filterUnits="userSpaceOnUse"><feFlood flood-opacity="0" result="BackgroundImageFix"/><feColorMatrix in="SourceAlpha" result="hardAlpha" values="0 0 0 0 0 0 0 0 0 0 0 0 0 0 0 0 0 0 127 0"/><feOffset dy="1"/><feGaussianBlur stdDeviation="1"/><feColorMatrix values="0 0 0 0 0.0627451 0 0 0 0 0.0941176 0 0 0 0 0.156863 0 0 0 0.06 0"/><feBlend in2="BackgroundImageFix" result="effect1_dropShadow_91_26979"/><feColorMatrix in="SourceAlpha" result="hardAlpha" values="0 0 0 0 0 0 0 0 0 0 0 0 0 0 0 0 0 0 127 0"/><feOffset dy="1"/><feGaussianBlur stdDeviation="1.5"/><feColorMatrix values="0 0 0 0 0.0627451 0 0 0 0 0.0941176 0 0 0 0 0.156863 0 0 0 0.1 0"/><feBlend in2="effect1_dropShadow_91_26979" result="effect2_dropShadow_91_26979"/><feBlend in="SourceGraphic" in2="effect2_dropShadow_91_26979" result="shape"/></filter><clipPath id="clip0_91_26979"><rect width="36" height="24" x="3" y="2" fill="white" rx="2"/></clipPath></defs></svg>

<svg xmlns="http://www.w3.org/2000/svg" fill="none" aria-hidden="true" viewBox="0 0 42 30"><g filter="url(#a)"><g clip-path="url(#b)"><mask id="c" width="36" height="24" x="3" y="2" maskUnits="userSpaceOnUse" style="mask-type:alpha"><path fill="#fff" d="M3 2h36v24H3z"/></mask><g mask="url(#c)"><path fill="#F7FCFF" fill-rule="evenodd" d="M3 2v24h36V2H3Z" clip-rule="evenodd"/><mask id="d" width="36" height="24" x="3" y="2" maskUnits="userSpaceOnUse" style="mask-type:alpha"><path fill="#fff" fill-rule="evenodd" d="M3 2v24h36V2H3Z" clip-rule="evenodd"/></mask><g mask="url(#d)"><path fill="#3D58DB" fill-rule="evenodd" d="M21 20.22c3.603 0 6.524-2.758 6.524-6.16 0-3.4-2.92-6.158-6.524-6.158-3.603 0-6.524 2.758-6.524 6.159s2.92 6.158 6.524 6.158Z" clip-rule="evenodd"/><mask id="e" width="14" height="14" x="14" y="7" maskUnits="userSpaceOnUse" style="mask-type:alpha"><path fill="#fff" fill-rule="evenodd" d="M21 20.22c3.603 0 6.524-2.758 6.524-6.16 0-3.4-2.92-6.158-6.524-6.158-3.603 0-6.524 2.758-6.524 6.159s2.92 6.158 6.524 6.158Z" clip-rule="evenodd"/></mask><g mask="url(#e)"><path fill="#E31D1C" fill-rule="evenodd" d="M27.752 14.533s-.366-2.904-3.078-3.062c-2.712-.158-3.443 2.13-3.6 2.736-.156.605-.552 2.222-3.408 2.222-2.855 0-3.113-4.11-3.113-4.11V7.471h13.2v7.06Z" clip-rule="evenodd"/></g><path fill="#272727" fill-rule="evenodd" d="m11.212 4.052 1.029.828-4.77 4.952-1.03-.828 4.77-4.952Zm1.697 1.34 1.03.827-4.6 4.88-1.029-.827 4.6-4.88Zm2.72 2.183-1.03-.828-4.612 4.917 1.03.828 4.612-4.917Zm15.905-3.87-1.03.825 1.786 1.862 1.03-.824-1.786-1.863Zm3.174 3.427-1.03.824 1.787 1.863 1.03-.824-1.787-1.863Zm-7.602.08 1.03-.824 1.786 1.863-1.03.825-1.786-1.863Zm4.204 2.603-1.03.824 1.786 1.863 1.03-.824-1.786-1.863ZM28.87 5.83l1.03-.824 4.97 5.38-1.03.825-4.97-5.38Zm3.442 10.413-1.039-.827-1.8 1.87 1.038.827 1.8-1.87Zm-3.028 3.291-1.038-.828-1.801 1.87 1.038.828 1.8-1.87Zm5.268-1.501 1.038.827-1.8 1.87-1.039-.827 1.801-1.87Zm-1.841 4.195-1.038-.828-1.801 1.87 1.038.828 1.8-1.87Zm-2.749-2.25 1.038.828-1.88 1.997-1.038-.828 1.88-1.997Zm4.122-2.5-1.038-.827-1.88 1.997 1.039.827 1.88-1.997Zm-23.877-.588 1.03-.826 4.595 4.68-1.03.826-4.595-4.68Zm1.072 4.093 1.03-.825 1.94 1.896-1.029.825-1.94-1.896Zm-3.431-2.292-1.03.825 4.62 4.743 1.03-.825-4.62-4.743Zm.733-.539 1.03-.825 1.682 1.754-1.03.825-1.682-1.754Z" clip-rule="evenodd"/></g></g></g></g><defs><clipPath id="b"><rect width="36" height="24" x="3" y="2" fill="#fff" rx="2"/></clipPath><filter id="a" width="42" height="30" x="0" y="0" color-interpolation-filters="sRGB" filterUnits="userSpaceOnUse"><feFlood flood-opacity="0" result="BackgroundImageFix"/><feColorMatrix in="SourceAlpha" result="hardAlpha" values="0 0 0 0 0 0 0 0 0 0 0 0 0 0 0 0 0 0 127 0"/><feOffset dy="1"/><feGaussianBlur stdDeviation="1"/><feColorMatrix values="0 0 0 0 0.0627451 0 0 0 0 0.0941176 0 0 0 0 0.156863 0 0 0 0.06 0"/><feBlend in2="BackgroundImageFix" result="effect1_dropShadow_91_26979"/><feColorMatrix in="SourceAlpha" result="hardAlpha" values="0 0 0 0 0 0 0 0 0 0 0 0 0 0 0 0 0 0 127 0"/><feOffset dy="1"/><feGaussianBlur stdDeviation="1.5"/><feColorMatrix values="0 0 0 0 0.0627451 0 0 0 0 0.0941176 0 0 0 0 0.156863 0 0 0 0.1 0"/><feBlend in2="effect1_dropShadow_91_26979" result="effect2_dropShadow_91_26979"/><feBlend in="SourceGraphic" in2="effect2_dropShadow_91_26979" result="shape"/></filter></defs></svg>
